run/templates/normal/set_symbol/nph.svg

<!-- Generated by IcoMoon.io -->
<svg version="1.1" xmlns="http://www.w3.org/2000/svg" width="22" height="32" viewBox="0 0 22 32">
<title>nph</title>
<path fill="#000000" d="M12.733 20.78v-9.701c2.461 0.638 4.251 2.57 4.251 4.849 0 2.282-1.79 4.214-4.251 4.852zM4.932 15.928c0-2.279 1.79-4.211 4.251-4.849v9.701c-2.461-0.638-4.251-2.57-4.251-4.852zM21.889 15.928c0-4.636-3.964-8.48-9.155-9.204v-6.724l-3.55 3.050v3.674c-5.187 0.724-9.152 4.568-9.152 9.204 0 4.639 3.965 8.483 9.152 9.207v6.865l3.55-3.050v-3.815c5.192-0.724 9.155-4.568 9.155-9.207z"></path>
</svg>

<?xml version="1.0" encoding="UTF-8" standalone="no"?>
<!-- Generated by IcoMoon.io -->

<svg
   version="1.1"
   width="21.857"
   height="32"
   viewBox="0 0 21.857 32"
   id="svg6"
   sodipodi:docname="nph.svg"
   inkscape:version="1.1.1 (3bf5ae0d25, 2021-09-20)"
   xmlns:inkscape="http://www.inkscape.org/namespaces/inkscape"
   xmlns:sodipodi="http://sodipodi.sourceforge.net/DTD/sodipodi-0.dtd"
   xmlns="http://www.w3.org/2000/svg"
   xmlns:svg="http://www.w3.org/2000/svg">
  <defs
     id="defs10" />
  <sodipodi:namedview
     id="namedview8"
     pagecolor="#ffffff"
     bordercolor="#666666"
     borderopacity="1.0"
     inkscape:pageshadow="2"
     inkscape:pageopacity="0.0"
     inkscape:pagecheckerboard="0"
     showgrid="false"
     inkscape:zoom="25.75"
     inkscape:cx="10.970874"
     inkscape:cy="15.980583"
     inkscape:window-width="1920"
     inkscape:window-height="1009"
     inkscape:window-x="-8"
     inkscape:window-y="-8"
     inkscape:window-maximized="1"
     inkscape:current-layer="svg6" />
  <title
     id="title2">nph</title>
  <path
     fill="#000000"
     d="m 12.701,20.78 v -9.701 c 2.461,0.638 4.251,2.57 4.251,4.849 0,2.282 -1.79,4.214 -4.251,4.852 z M 4.9,15.928 c 0,-2.279 1.79,-4.211 4.251,-4.849 V 20.78 C 6.69,20.142 4.9,18.21 4.9,15.928 Z m 16.957,0 c 0,-4.636 -3.964,-8.48 -9.155,-9.204 V 0 L 9.152,3.05 V 6.724 C 3.965,7.448 0,11.292 0,15.928 c 0,4.639 3.965,8.483 9.152,9.207 V 32 l 3.55,-3.05 v -3.815 c 5.192,-0.724 9.155,-4.568 9.155,-9.207 z"
     id="path4" />
</svg>
